svgs/thin/camera-viewfinder.svg

<svg xmlns="http://www.w3.org/2000/svg" viewBox="0 0 512 512"><!--! Font Awesome Pro 6.0.0-alpha3 by @fontawesome - https://fontawesome.com License - https://fontawesome.com/license (Commercial License) --><path d="M384 320V192c0-17.67-14.33-32-32-32h-36l-6.188-16.44C306.3 134.2 297.4 128 287.4 128H224.6c-10 0-19 6.188-22.5 15.56L196 160H160C142.3 160 128 174.3 128 192v128c0 17.67 14.33 32 32 32h192C369.7 352 384 337.7 384 320zM144 320V192c0-8.822 7.178-16 16-16h47.11l10-26.84C218.3 146.1 221.3 144 224.6 144h62.75c3.355 0 6.279 2.023 7.463 5.199L304.9 176H352c8.822 0 16 7.178 16 16v128c0 8.822-7.178 16-16 16H160C151.2 336 144 328.8 144 320zM256 208C229.5 208 208 229.5 208 256S229.5 304 256 304s48-21.5 48-48S282.5 208 256 208zM256 288C238.4 288 224 273.6 224 256s14.36-32 32-32s32 14.36 32 32S273.6 288 256 288zM8 160C12.42 160 16 156.4 16 152v-112c0-13.22 10.77-24 24-24h112C156.4 16 160 12.41 160 8S156.4 0 152 0h-112C17.94 0 0 17.94 0 40v112C0 156.4 3.578 160 8 160zM472 0h-112C355.6 0 352 3.594 352 8s3.578 8 8 8h112c13.23 0 24 10.78 24 24v112C496 156.4 499.6 160 504 160S512 156.4 512 152v-112C512 17.94 494.1 0 472 0zM504 352c-4.422 0-8 3.594-8 8v112c0 13.22-10.77 24-24 24h-112c-4.422 0-8 3.594-8 8S355.6 512 360 512h112c22.06 0 40-17.94 40-40v-112C512 355.6 508.4 352 504 352zM152 496h-112c-13.23 0-24-10.78-24-24v-112C16 355.6 12.42 352 8 352S0 355.6 0 360v112C0 494.1 17.94 512 40 512h112C156.4 512 160 508.4 160 504S156.4 496 152 496z"/></svg>

<svg xmlns="http://www.w3.org/2000/svg" viewBox="0 0 512 512"><!--! Font Awesome Pro 6.4.2 by @fontawesome - https://fontawesome.com License - https://fontawesome.com/license (Commercial License) Copyright 2023 Fonticons, Inc. --><path d="M0 40V152c0 4.4 3.6 8 8 8s8-3.6 8-8V40c0-13.3 10.7-24 24-24H152c4.4 0 8-3.6 8-8s-3.6-8-8-8H40C17.9 0 0 17.9 0 40zM472 0H360c-4.4 0-8 3.6-8 8s3.6 8 8 8H472c13.3 0 24 10.7 24 24V152c0 4.4 3.6 8 8 8s8-3.6 8-8V40c0-22.1-17.9-40-40-40zM208 256a48 48 0 1 1 96 0 48 48 0 1 1 -96 0zm112 0a64 64 0 1 0 -128 0 64 64 0 1 0 128 0zM40 512H152c4.4 0 8-3.6 8-8s-3.6-8-8-8H40c-13.3 0-24-10.7-24-24V360c0-4.4-3.6-8-8-8s-8 3.6-8 8V472c0 22.1 17.9 40 40 40zm472-40V360c0-4.4-3.6-8-8-8s-8 3.6-8 8V472c0 13.3-10.7 24-24 24H360c-4.4 0-8 3.6-8 8s3.6 8 8 8H472c22.1 0 40-17.9 40-40zM211.1 96c-10 0-19 6.2-22.5 15.6L182.5 128H144c-26.5 0-48 21.5-48 48V336c0 26.5 21.5 48 48 48H368c26.5 0 48-21.5 48-48V176c0-26.5-21.5-48-48-48H329.5l-6.2-16.4c-3.5-9.4-12.5-15.6-22.5-15.6H211.1zm-7.5 21.2c1.2-3.1 4.2-5.2 7.5-5.2h89.8c3.3 0 6.3 2.1 7.5 5.2l8.1 21.6c1.2 3.1 4.2 5.2 7.5 5.2h44c17.7 0 32 14.3 32 32V336c0 17.7-14.3 32-32 32H144c-17.7 0-32-14.3-32-32V176c0-17.7 14.3-32 32-32h44c3.3 0 6.3-2.1 7.5-5.2l8.1-21.6z"/></svg>
